X:421
T:Erin's Green Shore
S:Bruce & Emmett's Drummers and Fifers Guide (1862), p. 42
M:3/4
L:1/8
Q:1/4=180
K:Ador
%%MIDI program 72
%%MIDI transpose 8
%%MIDI ratio 3 1
{B}A>G|Az e3d|fz e3d|BA G4|z2z2 GA|Bcd2de|dzB3A|A6|z2z2::
d2|ez a3f|{a}gz f3d|ez d4|z2z2d2|ez a3f|gzf3d|e6|z2z2d2|
eza3f|afe2ed|BAG4|z2z2GA|Bcd3e|dzB3A|A6|z2z2:|
